!!!OTL: WIR HABEN UNS DURCH GOTTES HAND
!!!ARE: Europa, Mitteleuropa, Deutschland
!!!SCT: F0931
!!!YEM: Copyright 1995, estate of Helmut Schaffrath.
**kern
*ICvox
*Ivox
*M4/4
*k[b-]
*F:
{4a
=1
4b-
8a
8g
4a
4cc
=2
4.ff
8ee
4dd}
{4dd
=3
4gg
4ff
4dd
4b-
=4
2a
4g}
{4a
=5
4b-
8a
8g
4a
4cc
=6
4.ff
8ee
4dd}
{4dd
=7
4ff
4dd
4a
8cc
8dd
=8
4.ee
8dd
4cc}
{4cc
=9
4gg
8ee
8dd
4cc
8b-
8a
=10
4b-
8g
8b-
4a}
{4cc
=11
4gg
8ee
8dd
4cc
8b-
8a
=12
4b-
8g
8b-
4a}
{8a
8b-
=13
4dd
4cc
4.ff
8ee
=14
2ee
4dd}
{4dd
=15
4gg
4ff
4dd
4b-
=16
2.a
4g
=17
2f
4r}
==
!!!AGN: Liebes - Lied, religioes
!!!ONB: ESAC (Essen Associative Code) Database: FINK
!!!AMT: simple quadruple
!!!AIN: vox
!!!EED: Helmut Schaffrath
!!!EEV: 1.0
*-
